X:337
T:The Hop-pickers' Feast
C:Thompson, 1786
Q:1/2=120
M:2/2
L:1/8
K:D
%%center Play Tune 1, Tune 2, Tune 1.
P:A
|: A2 | "D"d2A2 f2d2 | "/"a4 gfed | "Em"g4 "A7"fedc | "D"dcde d2A2 |\
"D"d2A2 f2d2 | "Bm"a4 gfed | "Em"g4 "A7"fedc | "D"d6 :|
P:B
|: cd | "A"e2 z2 "D"f2 z2 | "Em"g3f e2f2 | "G"gagf "Em"efed | "A"cdcB A2A2 |\
"A"e2e2 "D"f2f2 | "Em"g3f e2g2 | "D"f2a2 "E7"f2d2 | "A"a6A2 |
"D"d2A2 f2d2 | "Bm"a4 gfed | "Em"g4 "A7"fedc | "D"dcde d2A2 |\
"D"d2A2 "D7"f2d2 | "B7"a4 "Em"gfed | "A7"g4 fedc | "D"d6 :|
N:Replace by blank line and X field
T:The Hop-pickers' Feast - second tune
C:Colin Hume
S:Colin Hume's website,  colinhume.com  - chords can also be printed below the stave.
Q:1/2=120
M:2/2
L:1/8
K:G
P:A
|: D2 | "G"B2G2 d2B2 | "/"gfga g2d2 | "C"edef "Am"g2e2 | "D"fefg a2d2 |\
"G"b4 "A7"agfe | "D"a4 "Bm"gfed | "Em"g4 "A7"fed^c | "D"d6 :|
P:B
|: B=c | "G"d2z2 "C"e2z2 | "G"d3c B2d2 | "Am"c2A2 "D7"ABcd | "G"B2G2 "D7"GABc |\
"G"d2z2 "C"e2z2 | "G"d3c B2d2 | "Em"g2g2 "A7"f2e2 | "D"d6 d2 |
"C"e4 "D"d3c | "Em"B2G2- G2AB | "Am"c2E2 E2B2 | "D"A6 GA |\
"G"B2G2 d2B2 | "Em"gfga g2G2 | "Am"c4 "D7"BAGF | "G"G6 :|

